X: 1
T: Frank's
R: reel
M: 4/4
L: 1/8
K: Amaj
|:"A"AcBA F2 AF|"A"EFAB cABc|"D"d3f ecAe|"E"faec (3Bcd cB|
"A"AcBA F2AF|"A"EFAB cABc|"D"d3f ecAc|1 "E"BAGB A3"A"G:|2 "E"BAGB "A"A2 (3cde||
"A"aAAg AAfA|"A"effe cABc|"D"d3f ecAc|"E"Bcde fe (3efg|
"A"aAAg AAfA|"A"effe cABc|"D"df f2 ecAc|"E"BAGB A2 (3cde|
"F#m"aAAg AAfA|"F#m"effe cABc|"D"d3f eAce|"E"faec (3Bcd cB|
"A"AcBA F3A|"A"EFAB cABc|"D"d3f ecAc|"E"BAGB "A"A4|

%%newpage
%% header "Pizza Wizards - Wedding Reel / Far From Home		$P"


